send-button-2.svg

<?xml version="1.0" encoding="UTF-8" standalone="no"?><!DOCTYPE svg PUBLIC "-//W3C//DTD SVG 1.1//EN" "http://www.w3.org/Graphics/SVG/1.1/DTD/svg11.dtd"><svg width="100%" height="100%" viewBox="0 0 116 26" version="1.1" xmlns="http://www.w3.org/2000/svg" xmlns:xlink="http://www.w3.org/1999/xlink" xml:space="preserve" style="fill-rule:evenodd;clip-rule:evenodd;stroke-linejoin:round;stroke-miterlimit:1.41421;"><path d="M41.04,9.768c0,-0.755 -0.613,-1.368 -1.368,-1.368l-19.584,0c-0.755,0 -1.368,0.613 -1.368,1.368l0,6.384c0,0.755 0.613,1.368 1.368,1.368l19.584,0c0.755,0 1.368,-0.613 1.368,-1.368l0,-6.384Z" style="fill:#75df6b;"/><g transform="matrix(0.24,0,0,0.24,0,-0.24)"><path d="M94,62.523c-1.042,0 -2.038,-0.156 -2.99,-0.469c-0.951,-0.312 -1.711,-0.732 -2.281,-1.26c-0.208,-0.195 -0.312,-0.438 -0.312,-0.729c0,-0.195 0.055,-0.365 0.166,-0.511c0.111,-0.146 0.243,-0.218 0.396,-0.218c0.181,0 0.375,0.076 0.583,0.229c1.292,1 2.764,1.5 4.417,1.5c1.195,0 2.111,-0.229 2.75,-0.688c0.639,-0.458 0.958,-1.111 0.958,-1.958c0,-0.486 -0.152,-0.879 -0.458,-1.177c-0.305,-0.299 -0.708,-0.538 -1.208,-0.719c-0.5,-0.18 -1.174,-0.368 -2.021,-0.562c-1.139,-0.264 -2.073,-0.542 -2.802,-0.834c-0.729,-0.291 -1.32,-0.708 -1.771,-1.25c-0.451,-0.541 -0.677,-1.25 -0.677,-2.125c0,-0.833 0.226,-1.573 0.677,-2.219c0.451,-0.645 1.083,-1.145 1.896,-1.5c0.812,-0.354 1.739,-0.531 2.781,-0.531c0.972,0 1.879,0.15 2.719,0.448c0.84,0.299 1.545,0.726 2.114,1.281c0.223,0.223 0.334,0.466 0.334,0.73c0,0.194 -0.056,0.364 -0.167,0.51c-0.111,0.146 -0.243,0.219 -0.396,0.219c-0.152,0 -0.354,-0.077 -0.604,-0.229c-0.68,-0.556 -1.312,-0.945 -1.896,-1.167c-0.583,-0.222 -1.284,-0.333 -2.104,-0.333c-1.153,0 -2.048,0.239 -2.687,0.718c-0.639,0.479 -0.959,1.15 -0.959,2.011c0,0.736 0.282,1.288 0.844,1.656c0.563,0.368 1.427,0.691 2.594,0.969c1.264,0.305 2.257,0.587 2.979,0.843c0.722,0.257 1.323,0.643 1.802,1.157c0.479,0.514 0.719,1.201 0.719,2.062c0,0.82 -0.226,1.542 -0.677,2.167c-0.452,0.625 -1.087,1.111 -1.907,1.458c-0.819,0.347 -1.756,0.521 -2.812,0.521Z" style="fill:#f8f7f6;fill-rule:nonzero;"/><path d="M109.771,60.002c0.153,0 0.285,0.063 0.396,0.188c0.111,0.125 0.166,0.284 0.166,0.479c0,0.347 -0.243,0.667 -0.729,0.958c-0.5,0.292 -1.028,0.511 -1.583,0.656c-0.556,0.146 -1.097,0.219 -1.625,0.219c-1.57,0 -2.809,-0.465 -3.719,-1.396c-0.91,-0.93 -1.365,-2.215 -1.365,-3.854c0,-1.041 0.202,-1.962 0.605,-2.76c0.402,-0.799 0.968,-1.42 1.698,-1.865c0.729,-0.444 1.559,-0.666 2.489,-0.666c1.32,0 2.368,0.43 3.146,1.291c0.778,0.861 1.167,2.028 1.167,3.5c0,0.278 -0.056,0.479 -0.167,0.604c-0.111,0.125 -0.292,0.188 -0.542,0.188l-6.708,0c0.125,2.389 1.257,3.583 3.396,3.583c0.541,0 1.007,-0.073 1.396,-0.219c0.389,-0.145 0.805,-0.343 1.25,-0.593c0.361,-0.209 0.604,-0.313 0.729,-0.313Zm-3.646,-6.729c-0.889,0 -1.601,0.278 -2.135,0.833c-0.535,0.556 -0.851,1.341 -0.948,2.355l5.895,0c-0.027,-1.028 -0.284,-1.816 -0.77,-2.365c-0.486,-0.549 -1.167,-0.823 -2.042,-0.823Z" style="fill:#f8f7f6;fill-rule:nonzero;"/><path d="M118,51.961c2.431,0 3.646,1.34 3.646,4.02l0,5.646c0,0.264 -0.073,0.469 -0.219,0.615c-0.146,0.146 -0.351,0.219 -0.615,0.219c-0.263,0 -0.472,-0.073 -0.625,-0.219c-0.152,-0.146 -0.229,-0.351 -0.229,-0.615l0,-5.541c0,-0.945 -0.184,-1.632 -0.552,-2.063c-0.368,-0.43 -0.955,-0.646 -1.76,-0.646c-0.931,0 -1.674,0.285 -2.229,0.854c-0.556,0.57 -0.834,1.341 -0.834,2.313l0,5.083c0,0.264 -0.073,0.469 -0.218,0.615c-0.146,0.146 -0.351,0.219 -0.615,0.219c-0.264,0 -0.472,-0.073 -0.625,-0.219c-0.153,-0.146 -0.229,-0.351 -0.229,-0.615l0,-8.791c0,-0.25 0.076,-0.452 0.229,-0.605c0.153,-0.152 0.361,-0.229 0.625,-0.229c0.25,0 0.448,0.077 0.594,0.229c0.146,0.153 0.218,0.348 0.218,0.584l0,1.062c0.334,-0.625 0.799,-1.1 1.396,-1.427c0.598,-0.326 1.278,-0.489 2.042,-0.489Z" style="fill:#f8f7f6;fill-rule:nonzero;"/><path d="M132.875,47.565c0.264,0 0.472,0.076 0.625,0.229c0.153,0.153 0.229,0.347 0.229,0.583l0,13.25c0,0.25 -0.076,0.452 -0.229,0.604c-0.153,0.153 -0.361,0.23 -0.625,0.23c-0.264,0 -0.469,-0.077 -0.615,-0.23c-0.145,-0.152 -0.218,-0.354 -0.218,-0.604l0,-1.125c-0.306,0.639 -0.754,1.132 -1.344,1.479c-0.59,0.348 -1.281,0.521 -2.073,0.521c-0.889,0 -1.674,-0.222 -2.354,-0.666c-0.681,-0.445 -1.209,-1.066 -1.584,-1.865c-0.375,-0.799 -0.562,-1.726 -0.562,-2.781c0,-1.042 0.187,-1.959 0.562,-2.75c0.375,-0.792 0.903,-1.403 1.584,-1.834c0.68,-0.43 1.465,-0.645 2.354,-0.645c0.792,0 1.483,0.173 2.073,0.52c0.59,0.348 1.038,0.841 1.344,1.48l0,-5.584c0,-0.25 0.073,-0.448 0.218,-0.594c0.146,-0.145 0.351,-0.218 0.615,-0.218Zm-3.917,13.541c0.986,0 1.747,-0.336 2.282,-1.01c0.534,-0.674 0.802,-1.628 0.802,-2.865c0,-1.236 -0.268,-2.187 -0.802,-2.854c-0.535,-0.666 -1.296,-1 -2.282,-1c-0.986,0 -1.753,0.334 -2.302,1c-0.548,0.667 -0.823,1.604 -0.823,2.813c0,1.236 0.275,2.198 0.823,2.885c0.549,0.688 1.316,1.031 2.302,1.031Z" style="fill:#f8f7f6;fill-rule:nonzero;"/><path d="M160.093,51.08c0,-0.291 -0.117,-0.581 -0.326,-0.791l-1.581,-1.58c-0.209,-0.21 -0.5,-0.326 -0.79,-0.326c-0.291,0 -0.582,0.116 -0.791,0.326l-7.626,7.637l-3.417,-3.429c-0.21,-0.21 -0.5,-0.326 -0.791,-0.326c-0.291,0 -0.581,0.116 -0.79,0.326l-1.581,1.581c-0.21,0.209 -0.326,0.499 -0.326,0.79c0,0.291 0.116,0.581 0.326,0.79l5.789,5.789c0.209,0.21 0.5,0.326 0.79,0.326c0.291,0 0.582,-0.116 0.791,-0.326l1.581,-1.58l8.416,-8.417c0.209,-0.209 0.326,-0.499 0.326,-0.79Z" style="fill:#f8f7f6;fill-rule:nonzero;"/></g></svg>

<?xml version="1.0" encoding="UTF-8" standalone="no"?>
<!DOCTYPE svg PUBLIC "-//W3C//DTD SVG 1.1//EN" "http://www.w3.org/Graphics/SVG/1.1/DTD/svg11.dtd">
<svg width="100%" height="100%" viewBox="0 0 93 38" version="1.1" xmlns="http://www.w3.org/2000/svg" xmlns:xlink="http://www.w3.org/1999/xlink" xml:space="preserve" style="fill-rule:evenodd;clip-rule:evenodd;stroke-linejoin:round;stroke-miterlimit:1.41421;">
    <g transform="matrix(1,0,0,1,-78,-35)">
        <g transform="matrix(6.64286,0,0,7.6,-440.143,-231)">
            <path d="M92,35.75C92,35.336 91.616,35 91.142,35L78.858,35C78.384,35 78,35.336 78,35.75L78,39.25C78,39.664 78.384,40 78.858,40L91.142,40C91.616,40 92,39.664 92,39.25L92,35.75Z" style="fill:rgb(117,223,107);"/>
        </g>
        <g transform="matrix(1,0,0,1,0,-1)">
            <g>
                <path d="M94,62.523C92.958,62.523 91.962,62.367 91.01,62.054C90.059,61.742 89.299,61.322 88.729,60.794C88.521,60.599 88.417,60.356 88.417,60.065C88.417,59.87 88.472,59.7 88.583,59.554C88.694,59.408 88.826,59.336 88.979,59.336C89.16,59.336 89.354,59.412 89.562,59.565C90.854,60.565 92.326,61.065 93.979,61.065C95.174,61.065 96.09,60.836 96.729,60.377C97.368,59.919 97.687,59.266 97.687,58.419C97.687,57.933 97.535,57.54 97.229,57.242C96.924,56.943 96.521,56.704 96.021,56.523C95.521,56.343 94.847,56.155 94,55.961C92.861,55.697 91.927,55.419 91.198,55.127C90.469,54.836 89.878,54.419 89.427,53.877C88.976,53.336 88.75,52.627 88.75,51.752C88.75,50.919 88.976,50.179 89.427,49.533C89.878,48.888 90.51,48.388 91.323,48.033C92.135,47.679 93.062,47.502 94.104,47.502C95.076,47.502 95.983,47.652 96.823,47.95C97.663,48.249 98.368,48.676 98.937,49.231C99.16,49.454 99.271,49.697 99.271,49.961C99.271,50.155 99.215,50.325 99.104,50.471C98.993,50.617 98.861,50.69 98.708,50.69C98.556,50.69 98.354,50.613 98.104,50.461C97.424,49.905 96.792,49.516 96.208,49.294C95.625,49.072 94.924,48.961 94.104,48.961C92.951,48.961 92.056,49.2 91.417,49.679C90.778,50.158 90.458,50.829 90.458,51.69C90.458,52.426 90.74,52.978 91.302,53.346C91.865,53.714 92.729,54.037 93.896,54.315C95.16,54.62 96.153,54.902 96.875,55.158C97.597,55.415 98.198,55.801 98.677,56.315C99.156,56.829 99.396,57.516 99.396,58.377C99.396,59.197 99.17,59.919 98.719,60.544C98.267,61.169 97.632,61.655 96.812,62.002C95.993,62.349 95.056,62.523 94,62.523Z" style="fill:rgb(248,247,246);fill-rule:nonzero;"/>
                <path d="M109.771,60.002C109.924,60.002 110.056,60.065 110.167,60.19C110.278,60.315 110.333,60.474 110.333,60.669C110.333,61.016 110.09,61.336 109.604,61.627C109.104,61.919 108.576,62.138 108.021,62.283C107.465,62.429 106.924,62.502 106.396,62.502C104.826,62.502 103.587,62.037 102.677,61.106C101.767,60.176 101.312,58.891 101.312,57.252C101.312,56.211 101.514,55.29 101.917,54.492C102.319,53.693 102.885,53.072 103.615,52.627C104.344,52.183 105.174,51.961 106.104,51.961C107.424,51.961 108.472,52.391 109.25,53.252C110.028,54.113 110.417,55.28 110.417,56.752C110.417,57.03 110.361,57.231 110.25,57.356C110.139,57.481 109.958,57.544 109.708,57.544L103,57.544C103.125,59.933 104.257,61.127 106.396,61.127C106.937,61.127 107.403,61.054 107.792,60.908C108.181,60.763 108.597,60.565 109.042,60.315C109.403,60.106 109.646,60.002 109.771,60.002ZM106.125,53.273C105.236,53.273 104.524,53.551 103.99,54.106C103.455,54.662 103.139,55.447 103.042,56.461L108.937,56.461C108.91,55.433 108.653,54.645 108.167,54.096C107.681,53.547 107,53.273 106.125,53.273Z" style="fill:rgb(248,247,246);fill-rule:nonzero;"/>
                <path d="M118,51.961C120.431,51.961 121.646,53.301 121.646,55.981L121.646,61.627C121.646,61.891 121.573,62.096 121.427,62.242C121.281,62.388 121.076,62.461 120.812,62.461C120.549,62.461 120.34,62.388 120.187,62.242C120.035,62.096 119.958,61.891 119.958,61.627L119.958,56.086C119.958,55.141 119.774,54.454 119.406,54.023C119.038,53.593 118.451,53.377 117.646,53.377C116.715,53.377 115.972,53.662 115.417,54.231C114.861,54.801 114.583,55.572 114.583,56.544L114.583,61.627C114.583,61.891 114.51,62.096 114.365,62.242C114.219,62.388 114.014,62.461 113.75,62.461C113.486,62.461 113.278,62.388 113.125,62.242C112.972,62.096 112.896,61.891 112.896,61.627L112.896,52.836C112.896,52.586 112.972,52.384 113.125,52.231C113.278,52.079 113.486,52.002 113.75,52.002C114,52.002 114.198,52.079 114.344,52.231C114.49,52.384 114.562,52.579 114.562,52.815L114.562,53.877C114.896,53.252 115.361,52.777 115.958,52.45C116.556,52.124 117.236,51.961 118,51.961Z" style="fill:rgb(248,247,246);fill-rule:nonzero;"/>
                <path d="M132.875,47.565C133.139,47.565 133.347,47.641 133.5,47.794C133.653,47.947 133.729,48.141 133.729,48.377L133.729,61.627C133.729,61.877 133.653,62.079 133.5,62.231C133.347,62.384 133.139,62.461 132.875,62.461C132.611,62.461 132.406,62.384 132.26,62.231C132.115,62.079 132.042,61.877 132.042,61.627L132.042,60.502C131.736,61.141 131.288,61.634 130.698,61.981C130.108,62.329 129.417,62.502 128.625,62.502C127.736,62.502 126.951,62.28 126.271,61.836C125.59,61.391 125.062,60.77 124.687,59.971C124.312,59.172 124.125,58.245 124.125,57.19C124.125,56.148 124.312,55.231 124.687,54.44C125.062,53.648 125.59,53.037 126.271,52.606C126.951,52.176 127.736,51.961 128.625,51.961C129.417,51.961 130.108,52.134 130.698,52.481C131.288,52.829 131.736,53.322 132.042,53.961L132.042,48.377C132.042,48.127 132.115,47.929 132.26,47.783C132.406,47.638 132.611,47.565 132.875,47.565ZM128.958,61.106C129.944,61.106 130.705,60.77 131.24,60.096C131.774,59.422 132.042,58.468 132.042,57.231C132.042,55.995 131.774,55.044 131.24,54.377C130.705,53.711 129.944,53.377 128.958,53.377C127.972,53.377 127.205,53.711 126.656,54.377C126.108,55.044 125.833,55.981 125.833,57.19C125.833,58.426 126.108,59.388 126.656,60.075C127.205,60.763 127.972,61.106 128.958,61.106Z" style="fill:rgb(248,247,246);fill-rule:nonzero;"/>
                <path d="M160.093,51.08C160.093,50.789 159.976,50.499 159.767,50.289L158.186,48.709C157.977,48.499 157.686,48.383 157.396,48.383C157.105,48.383 156.814,48.499 156.605,48.709L148.979,56.346L145.562,52.917C145.352,52.707 145.062,52.591 144.771,52.591C144.48,52.591 144.19,52.707 143.981,52.917L142.4,54.498C142.19,54.707 142.074,54.997 142.074,55.288C142.074,55.579 142.19,55.869 142.4,56.078L148.189,61.867C148.398,62.077 148.689,62.193 148.979,62.193C149.27,62.193 149.561,62.077 149.77,61.867L151.351,60.287L159.767,51.87C159.976,51.661 160.093,51.371 160.093,51.08Z" style="fill:rgb(248,247,246);fill-rule:nonzero;"/>
            </g>
        </g>
    </g>
</svg>
